elementary-icon-theme/elementary/status/48/dialog-error.svg

<?xml version="1.0" encoding="UTF-8" standalone="no"?>
<!-- Created with Inkscape (http://www.inkscape.org/) -->
<svg
   xmlns:svg="http://www.w3.org/2000/svg"
   xmlns="http://www.w3.org/2000/svg"
   xmlns:xlink="http://www.w3.org/1999/xlink"
   version="1.0"
   width="48"
   height="48"
   id="svg3260">
  <defs
     id="defs3262">
    <linearGradient
       id="linearGradient8838">
      <stop
         id="stop8840"
         style="stop-color:#000000;stop-opacity:1"
         offset="0" />
      <stop
         id="stop8842"
         style="stop-color:#000000;stop-opacity:0"
         offset="1" />
    </linearGradient>
    <radialGradient
       cx="62.625"
       cy="4.625"
       r="10.625"
       fx="62.625"
       fy="4.625"
       id="radialGradient2486"
       xlink:href="#linearGradient8838"
       gradientUnits="userSpaceOnUse"
       gradientTransform="matrix(2.1647059,0,0,0.7529402,-111.56471,36.517647)" />
    <linearGradient
       id="linearGradient2490">
      <stop
         id="stop2492"
         style="stop-color:#791235;stop-opacity:1"
         offset="0" />
      <stop
         id="stop2494"
         style="stop-color:#dd3b27;stop-opacity:1"
         offset="1" />
    </linearGradient>
    <linearGradient
       x1="18.379412"
       y1="44.980297"
       x2="18.379412"
       y2="3.0816143"
       id="linearGradient2483"
       xlink:href="#linearGradient2490"
       gradientUnits="userSpaceOnUse"
       gradientTransform="matrix(0.9584364,0,0,0.9584366,0.9975246,1.9975253)" />
    <linearGradient
       id="linearGradient3242">
      <stop
         id="stop3244"
         style="stop-color:#f8b17e;stop-opacity:1"
         offset="0" />
      <stop
         id="stop3246"
         style="stop-color:#e35d4f;stop-opacity:1"
         offset="0.26238" />
      <stop
         id="stop3248"
         style="stop-color:#c6262e;stop-opacity:1"
         offset="0.66093999" />
      <stop
         id="stop3250"
         style="stop-color:#690b54;stop-opacity:1"
         offset="1" />
    </linearGradient>
    <radialGradient
       cx="23.895569"
       cy="3.9900031"
       r="20.397499"
       fx="23.895569"
       fy="3.9900031"
       id="radialGradient2481"
       xlink:href="#linearGradient3242"
       gradientUnits="userSpaceOnUse"
       gradientTransform="matrix(0,2.2874593,-3.0194057,0,36.047437,-50.630156)" />
    <linearGradient
       id="linearGradient4873">
      <stop
         id="stop4875"
         style="stop-color:#ffffff;stop-opacity:1"
         offset="0" />
      <stop
         id="stop4877"
         style="stop-color:#ffffff;stop-opacity:0"
         offset="1" />
    </linearGradient>
    <linearGradient
       x1="63.397362"
       y1="-12.489107"
       x2="63.397362"
       y2="5.4675598"
       id="linearGradient2478"
       xlink:href="#linearGradient4873"
       gradientUnits="userSpaceOnUse"
       gradientTransform="matrix(2.1153735,0,0,2.1153253,-107.57709,32.426559)" />
  </defs>
  <g
     id="layer1">
    <path
       d="M 46.999997,40 C 46.999997,44.418278 36.702545,48 23.999997,48 C 11.297449,48 0.9999968,44.418278 0.9999968,40 C 0.9999968,35.581722 11.297449,32 23.999997,32 C 36.702545,32 46.999997,35.581722 46.999997,40 L 46.999997,40 z"
       id="path8836"
       style="opacity:0.3;fill:url(#radialGradient2486);fill-opacity:1;fill-rule:evenodd;stroke:none;stroke-width:0.99999988;stroke-linecap:butt;stroke-linejoin:round;marker:none;marker-start:none;marker-mid:none;marker-end:none;stroke-miterlimit:4;stroke-dasharray:none;stroke-dashoffset:0;stroke-opacity:1;visibility:visible;display:inline;overflow:visible" />
    <path
       d="M 24.000002,5.5018088 C 13.241573,5.5018088 4.5018088,14.24157 4.5018088,25 C 4.5018088,35.75843 13.241573,44.498195 24.000002,44.498192 C 34.758427,44.498192 43.498201,35.75843 43.498191,25 C 43.498191,14.24157 34.758427,5.5018088 24.000002,5.5018088 z"
       id="path2555"
       style="fill:url(#radialGradient2481);fill-opacity:1;stroke:url(#linearGradient2483);stroke-width:1.003654;stroke-linecap:round;stroke-linejoin:round;stroke-miterlimit:4;stroke-dasharray:none;stroke-dashoffset:0;stroke-opacity:1" />
    <path
       d="M 42.500002,24.999344 C 42.500002,35.216942 34.21666,43.5 24.000235,43.5 C 13.782875,43.5 5.5000003,35.216848 5.5000003,24.999344 C 5.5000003,14.782219 13.782875,6.5000001 24.000235,6.5000001 C 34.21666,6.5000001 42.500002,14.782219 42.500002,24.999344 L 42.500002,24.999344 z"
       id="path8655"
       style="opacity:0.4;fill:none;fill-opacity:1;fill-rule:nonzero;stroke:url(#linearGradient2478);stroke-width:1;stroke-miterlimit:4;stroke-dasharray:none;stroke-opacity:1" />
    <path
       d="M 9,26 C 19.000001,26 29,26 39,26 C 39,24.333334 39,22.666667 39,21 C 29,21 19.000001,21 9,21 C 9,22.666667 9,24.333334 9,26 z"
       id="path2975"
       style="font-size:89.63063812px;font-style:normal;font-variant:normal;font-weight:normal;font-stretch:normal;text-align:start;line-height:125%;writing-mode:lr-tb;text-anchor:start;opacity:0.2;fill:#000000;fill-opacity:1;stroke:none;stroke-width:0.7688275;stroke-linecap:round;stroke-linejoin:round;stroke-miterlimit:4;stroke-dasharray:none;stroke-opacity:1;font-family:Georgia" />
    <path
       d="M 9,27 C 19.000001,27 29,27 39,27 C 39,25.333334 39,23.666667 39,22 C 29,22 19.000001,22 9,22 C 9,23.666667 9,25.333334 9,27 z"
       id="path3360"
       style="font-size:89.63063812px;font-style:normal;font-variant:normal;font-weight:normal;font-stretch:normal;text-align:start;line-height:125%;writing-mode:lr-tb;text-anchor:start;fill:#ffffff;fill-opacity:1;stroke:none;stroke-width:0.7688275;stroke-linecap:round;stroke-linejoin:round;stroke-miterlimit:4;stroke-dasharray:none;stroke-opacity:1;font-family:Georgia" />
  </g>
</svg>

<?xml version="1.0" encoding="UTF-8" standalone="no"?>
<!-- Created with Inkscape (http://www.inkscape.org/) -->

<svg
   xmlns:dc="http://purl.org/dc/elements/1.1/"
   xmlns:cc="http://creativecommons.org/ns#"
   xmlns:rdf="http://www.w3.org/1999/02/22-rdf-syntax-ns#"
   xmlns:svg="http://www.w3.org/2000/svg"
   xmlns="http://www.w3.org/2000/svg"
   xmlns:xlink="http://www.w3.org/1999/xlink"
   xmlns:sodipodi="http://sodipodi.sourceforge.net/DTD/sodipodi-0.dtd"
   xmlns:inkscape="http://www.inkscape.org/namespaces/inkscape"
   width="48px"
   height="48px"
   id="svg4105"
   version="1.1"
   inkscape:version="0.48.0 r9654"
   sodipodi:docname="dialog-warning.svg">
  <defs
     id="defs4107">
    <linearGradient
       inkscape:collect="always"
       xlink:href="#linearGradient4055"
       id="linearGradient4061"
       x1="23.048094"
       y1="21.538113"
       x2="23.048094"
       y2="27.511892"
       gradientUnits="userSpaceOnUse"
       gradientTransform="matrix(0.96666667,0,0,0.80000001,0.79999995,4.8999997)" />
    <linearGradient
       inkscape:collect="always"
       id="linearGradient4055">
      <stop
         style="stop-color:#000000;stop-opacity:1;"
         offset="0"
         id="stop4057" />
      <stop
         style="stop-color:#000000;stop-opacity:0;"
         offset="1"
         id="stop4059" />
    </linearGradient>
    <linearGradient
       y2="44.340794"
       x2="71.204407"
       y1="6.2375584"
       x1="71.204407"
       gradientTransform="translate(-47.733515,-0.3572398)"
       gradientUnits="userSpaceOnUse"
       id="linearGradient3403"
       xlink:href="#linearGradient4011"
       inkscape:collect="always" />
    <linearGradient
       id="linearGradient4011">
      <stop
         offset="0"
         style="stop-color:#ffffff;stop-opacity:1;"
         id="stop4013" />
      <stop
         id="stop4015"
         style="stop-color:#ffffff;stop-opacity:0.23529412;"
         offset="0.507761" />
      <stop
         offset="0.83456558"
         style="stop-color:#ffffff;stop-opacity:0.15686275;"
         id="stop4017" />
      <stop
         offset="1"
         style="stop-color:#ffffff;stop-opacity:0.39215687;"
         id="stop4019" />
    </linearGradient>
    <radialGradient
       inkscape:collect="always"
       xlink:href="#linearGradient3242"
       id="radialGradient3013"
       gradientUnits="userSpaceOnUse"
       gradientTransform="matrix(0,2.2874593,-3.0194057,0,36.047437,-50.630156)"
       cx="23.895569"
       cy="3.9900031"
       fx="23.895569"
       fy="3.9900031"
       r="20.397499" />
    <linearGradient
       id="linearGradient3242">
      <stop
         id="stop3244"
         style="stop-color:#f8b17e;stop-opacity:1"
         offset="0" />
      <stop
         id="stop3246"
         style="stop-color:#e35d4f;stop-opacity:1"
         offset="0.26238" />
      <stop
         id="stop3248"
         style="stop-color:#c6262e;stop-opacity:1"
         offset="0.66093999" />
      <stop
         id="stop3250"
         style="stop-color:#690b54;stop-opacity:1"
         offset="1" />
    </linearGradient>
    <linearGradient
       inkscape:collect="always"
       xlink:href="#linearGradient2490"
       id="linearGradient3015"
       gradientUnits="userSpaceOnUse"
       gradientTransform="matrix(0.9584364,0,0,0.9584366,0.9975246,1.9975255)"
       x1="18.379412"
       y1="44.980297"
       x2="18.379412"
       y2="3.0816143" />
    <linearGradient
       id="linearGradient2490">
      <stop
         id="stop2492"
         style="stop-color:#791235;stop-opacity:1"
         offset="0" />
      <stop
         id="stop2494"
         style="stop-color:#dd3b27;stop-opacity:1"
         offset="1" />
    </linearGradient>
    <linearGradient
       id="linearGradient8838">
      <stop
         id="stop8840"
         style="stop-color:#000000;stop-opacity:1"
         offset="0" />
      <stop
         id="stop8842"
         style="stop-color:#000000;stop-opacity:0"
         offset="1" />
    </linearGradient>
    <radialGradient
       r="10.625"
       fy="4.625"
       fx="62.625"
       cy="4.625"
       cx="62.625"
       gradientTransform="matrix(2.1647059,0,0,0.7529402,-111.56471,36.517647)"
       gradientUnits="userSpaceOnUse"
       id="radialGradient4103"
       xlink:href="#linearGradient8838"
       inkscape:collect="always" />
  </defs>
  <sodipodi:namedview
     id="base"
     pagecolor="#ffffff"
     bordercolor="#666666"
     borderopacity="1.0"
     inkscape:pageopacity="0.0"
     inkscape:pageshadow="2"
     inkscape:zoom="7"
     inkscape:cx="24"
     inkscape:cy="24"
     inkscape:current-layer="layer1"
     showgrid="true"
     inkscape:grid-bbox="true"
     inkscape:document-units="px"
     inkscape:window-width="447"
     inkscape:window-height="438"
     inkscape:window-x="0"
     inkscape:window-y="360"
     inkscape:window-maximized="0" />
  <metadata
     id="metadata4110">
    <rdf:RDF>
      <cc:Work
         rdf:about="">
        <dc:format>image/svg+xml</dc:format>
        <dc:type
           rdf:resource="http://purl.org/dc/dcmitype/StillImage" />
        <dc:title></dc:title>
      </cc:Work>
    </rdf:RDF>
  </metadata>
  <g
     id="layer1"
     inkscape:label="Layer 1"
     inkscape:groupmode="layer">
    <path
       inkscape:connector-curvature="0"
       style="opacity:0.3;fill:url(#radialGradient4103);fill-opacity:1;fill-rule:evenodd;stroke:none;stroke-width:0.99999988;marker:none;visibility:visible;display:inline;overflow:visible"
       id="path8836"
       d="m 46.999997,40 c 0,4.418278 -10.297452,8 -23,8 -12.702548,0 -23.0000002,-3.581722 -23.0000002,-8 0,-4.418278 10.2974522,-8 23.0000002,-8 12.702548,0 23,3.581722 23,8 l 0,0 z" />
    <path
       inkscape:connector-curvature="0"
       style="fill:url(#radialGradient3013);fill-opacity:1;stroke:url(#linearGradient3015);stroke-width:1.003654;stroke-linecap:round;stroke-linejoin:round;stroke-miterlimit:4;stroke-opacity:1;stroke-dasharray:none;stroke-dashoffset:0"
       id="path2555"
       d="M 24.000002,5.501809 C 13.241573,5.501809 4.5018088,14.24157 4.5018088,25 c 0,10.75843 8.7397642,19.498195 19.4981932,19.498192 10.758425,0 19.498199,-8.739762 19.498189,-19.498192 0,-10.75843 -8.739764,-19.498191 -19.498189,-19.498191 z" />
    <path
       inkscape:connector-curvature="0"
       style="opacity:0.5;color:#000000;fill:none;stroke:url(#linearGradient3403);stroke-width:1;stroke-linecap:round;stroke-linejoin:round;stroke-miterlimit:4;stroke-opacity:1;stroke-dasharray:none;stroke-dashoffset:0;marker:none;visibility:visible;display:inline;overflow:visible;enable-background:accumulate"
       id="path8655"
       d="M 42.500002,24.999344 C 42.500002,35.216942 34.21666,43.5 24.000235,43.5 13.782875,43.5 5.5000003,35.216848 5.5000003,24.999344 c 0,-10.217125 8.2828747,-18.4993438 18.5002347,-18.4993438 10.216425,0 18.499767,8.2822188 18.499767,18.4993438 l 0,0 z" />
    <path
       inkscape:connector-curvature="0"
       style="font-size:89.63063812px;font-style:normal;font-variant:normal;font-weight:normal;font-stretch:normal;text-align:start;line-height:125%;writing-mode:lr-tb;text-anchor:start;fill:#b32a2d;fill-opacity:1;stroke:none;font-family:Georgia"
       id="path2975"
       d="m 9,26 c 10.000001,0 20,0 30,0 0,-1.666666 0,-3.333333 0,-5 -10,0 -19.999999,0 -30,0 0,1.666667 0,3.333334 0,5 z" />
    <path
       inkscape:connector-curvature="0"
       style="font-size:89.63063812px;font-style:normal;font-variant:normal;font-weight:normal;font-stretch:normal;text-align:start;line-height:125%;writing-mode:lr-tb;text-anchor:start;fill:#ffffff;fill-opacity:1;stroke:none;font-family:Georgia"
       id="path3360"
       d="m 9,27 c 10.000001,0 20,0 30,0 0,-1.666666 0,-3.333333 0,-5 -10,0 -19.999999,0 -30,0 0,1.666667 0,3.333334 0,5 z" />
    <path
       inkscape:connector-curvature="0"
       style="font-size:89.63063812px;font-style:normal;font-variant:normal;font-weight:normal;font-stretch:normal;text-align:start;line-height:125%;writing-mode:lr-tb;text-anchor:start;opacity:0.1;fill:none;stroke:url(#linearGradient4061);stroke-width:0.99999994;stroke-opacity:1;font-family:Georgia"
       id="path3360-2"
       d="m 9.5,26.5 c 9.666668,0 19.333333,0 29,0 0,-1.333333 0,-2.666666 0,-4 -9.666667,0 -19.333332,0 -29,0 0,1.333334 0,2.666667 0,4 z" />
  </g>
</svg>
